dist/img/icons/star-normal.svg

<svg width="40" height="40" viewBox="0 0 40 40" fill="none" xmlns="http://www.w3.org/2000/svg">
<path fill-rule="evenodd" clip-rule="evenodd" d="M18.0882 6.8851C18.8132 5.21343 21.1865 5.21343 21.9115 6.8851L25.2115 14.4951L33.4682 15.2818C35.2815 15.4534 36.0149 17.7101 34.6482 18.9168L28.4315 24.4068L30.2349 32.5018C30.6315 34.2818 28.7115 35.6751 27.1415 34.7484L19.9999 30.5334L12.8582 34.7501C11.2882 35.6768 9.36819 34.2834 9.76485 32.5034L11.5682 24.4084L5.35152 18.9184C3.98485 17.7118 4.71818 15.4551 6.53318 15.2834L14.7882 14.4968L18.0882 6.88676V6.8851ZM19.9999 10.8568L17.4549 16.7234L17.0649 17.6268L16.0849 17.7201L9.71818 18.3268L14.5115 22.5601L15.2499 23.2101L15.0365 24.1701L13.6449 30.4134L19.1532 27.1618L19.9999 26.6618L20.8465 27.1618L26.3549 30.4118L24.9632 24.1701L24.7499 23.2101L25.4882 22.5601L30.2815 18.3268L23.9149 17.7201L22.9349 17.6268L22.5449 16.7234L19.9999 10.8568Z" fill="#F8F8FF"/>
</svg>

<svg width="40" height="40" fill="none" xmlns="http://www.w3.org/2000/svg"><path fill-rule="evenodd" clip-rule="evenodd" d="M18.088 6.885c.725-1.672 3.098-1.672 3.823 0l3.3 7.61 8.257.787c1.813.171 2.547 2.428 1.18 3.635l-6.217 5.49 1.804 8.095c.396 1.78-1.523 3.173-3.093 2.246L20 30.533l-7.142 4.217c-1.57.927-3.49-.467-3.093-2.247l1.803-8.095-6.216-5.49c-1.367-1.206-.634-3.463 1.181-3.635l8.255-.786 3.3-7.61v-.002zM20 10.857l-2.545 5.866-.39.904-.98.093-6.367.607 4.793 4.233.739.65-.213.96-1.392 6.243 5.508-3.251.847-.5.846.5 5.509 3.25-1.392-6.242-.213-.96.738-.65 4.794-4.233-6.367-.607-.98-.093-.39-.904L20 10.857z" fill="#F8F8FF"/></svg>
